X: 3
T:Culler's Lament, The
M:3/4
L:1/8
Q:120
C:Words: Peter Cape, Music: Don Toms
K:C
&quot;C&quot;z6|:&quot;Em&quot;z6|&quot;Dm&quot;z6|&quot;G&quot;z6|&quot;C&quot;z6|&quot;Fe&quot;z6|&quot;C&quot;z6|z6|!
&quot;C&quot;gg3g2|&quot;G&quot;fg3f2|&quot;C&quot;eg3g2|&quot;G&quot;fg3zf|
&quot;C&quot;e3e2e|&quot;Am&quot;e3cc2|&quot;Dm&quot;c2B2c2|&quot;G&quot;d6-|d4z2|!
&quot;C&quot;cc3B2|&quot;Am&quot;AA3f2|&quot;Dm&quot;f2g3f|&quot;Am&quot;ec3-c2-|c4zG|
&quot;C&quot;G3GG2|&quot;G&quot;dd3d2|d3ed2|&quot;C&quot;c6:||
